X:106
T:Farewell to Lissycasey
T:Paddy Breen's
R:single jig
D:Michael Tubridy: The Eagle's Whistle
Z:id:hn-slide-106
M:6/8
L:1/8
K:G
G2B G2B | G2B ded | BAB E2D | FAG FED |
G2B G2B | G2B ded | BAB E2D | FAF G3 :| 
|: GBd ~g3 | f2e e2d | e2d e2f | e2d BAB | 
GBd g2g | f2e e2d | BAB E2D | FAF G3 :|  

